src/icons/qantas/valet_parking.svg

<?xml version="1.0" encoding="UTF-8"?>
<svg width="24px" height="24px" viewBox="0 0 24 24" version="1.1" xmlns="http://www.w3.org/2000/svg" xmlns:xlink="http://www.w3.org/1999/xlink">
    <g id="Inclusions/ic_valetparking" stroke="none" stroke-width="1" fill="none" fill-rule="evenodd">
        <polygon id="Bounds" points="0 0 24 0 24 24 0 24"></polygon>
        <path d="M15.8556756,12.9935982 C18.0468377,14.0583403 19.3102654,15.9882719 19.9474724,17.6026518 C20.3486769,18.6191132 20.4341669,20.1848808 20.442458,21.3252044 L20.4425672,21.7084188 C20.4394744,22.1915848 20.4254998,22.5551393 20.4254998,22.6975005 C17.6477491,22.7189035 14.0796339,22.7189035 9.72115408,22.6975005 C9.72314188,21.7231892 9.72463274,20.8640471 9.72562664,20.1200741 L9.72627889,19.5836885 C9.72637207,19.49789 9.72645748,19.4138909 9.72653513,19.3316914 L9.72653513,17.4055612 L9.72641283,17.3375971 L9.72641283,17.3375971 L9.72562664,17.0382657 C9.72463274,16.7549693 9.72314188,16.586842 9.72115408,16.5338838 C9.71320286,16.3220511 9.83697384,16.1413464 10.092467,15.9917696 L12.469323,14.2955229 C13.8079461,14.1923328 14.9367303,13.7583579 15.8556756,12.9935982 Z M8.10311209,13.0014555 C9.18717784,13.6661691 9.8966505,14.0261544 10.2315301,14.0814116 C9.7360796,14.3925607 8.90295454,14.9472974 8.47894161,15.3176363 C8.16602769,15.5909397 8.17706173,15.5670869 8.16058224,16.0489595 C8.1417034,16.6009908 8.12254668,18.8197753 8.10311209,22.705313 L3.62581717,22.705313 C3.48527355,20.9186919 3.56136404,19.4320789 3.85408865,18.2454741 C4.29317557,16.4655669 5.04940115,15.3974516 5.87081228,14.6215727 C6.41841971,14.1043201 7.16251964,13.5642811 8.10311209,13.0014555 Z M12.038659,19.0820219 C11.625187,19.0820219 11.2900017,19.4172072 11.2900017,19.8306792 C11.2900017,20.2441511 11.625187,20.5793364 12.038659,20.5793364 C12.4521309,20.5793364 12.7873162,20.2441511 12.7873162,19.8306792 C12.7873162,19.4172072 12.4521309,19.0820219 12.038659,19.0820219 Z M12.038659,16.5523589 C11.625187,16.5523589 11.2900017,16.8875441 11.2900017,17.3010161 C11.2900017,17.7144881 11.625187,18.0496733 12.038659,18.0496733 C12.4521309,18.0496733 12.7873162,17.7144881 12.7873162,17.3010161 C12.7873162,16.8875441 12.4521309,16.5523589 12.038659,16.5523589 Z M16.5761381,7.41755082 C16.6188592,7.70165085 16.6375141,7.91521986 16.6375141,8.17221664 C16.6375141,10.7235757 14.5691897,12.7918608 12.0178307,12.7918608 C9.46647169,12.7918608 7.39818655,10.7235757 7.39818655,8.17221664 C7.39818655,7.93527303 7.41602501,7.70249582 7.4504322,7.47515472 C9.44320312,7.45472591 10.5451621,7.43966323 11.5643164,7.42986067 L11.9694772,7.42621993 C12.643769,7.42061876 13.3291407,7.41734914 14.2650018,7.41637967 L15.3073619,7.41618287 C15.6894833,7.41637846 16.1093408,7.41683485 16.5761381,7.41755082 Z M12.0129021,1.28929733 C13.3786248,1.33373093 15.2951287,1.62926315 15.9074334,1.8642485 C16.5197381,2.09923386 16.5872429,2.30541061 16.6249627,3.0986235 C16.6501092,3.6274321 16.6437208,4.58324264 16.6057976,5.96605514 L7.4204949,5.90050339 C7.41426932,5.49724411 7.41046733,5.12983027 7.40908896,4.79826187 L7.40883909,4.32779335 C7.41145216,3.58848595 7.42921276,3.07321253 7.46212088,2.78197311 C7.54110037,2.0829985 7.66951834,1.95714401 8.18050467,1.84508347 C8.69149099,1.73302292 10.6471795,1.24486374 12.0129021,1.28929733 Z" id="valet" fill="#000000"></path>
    </g>
</svg>

<svg width="24" height="24" xmlns="http://www.w3.org/2000/svg"><g fill="none" fill-rule="evenodd"><path d="M0 0h24v24H0z"/><path d="M15.856 12.994c2.19 1.064 3.454 2.994 4.091 4.609.402 1.016.487 2.582.495 3.722v.383c-.003.484-.017.847-.017.99a881.33 881.33 0 01-10.704 0l.005-2.578v-.536-2.546a24.656 24.656 0 00-.005-.504c-.008-.212.116-.393.371-.542l2.377-1.696c1.339-.104 2.468-.538 3.387-1.302zM8.103 13c1.084.665 1.794 1.025 2.129 1.08-.496.312-1.329.866-1.753 1.237-.313.273-.302.25-.318.731-.02.552-.038 2.77-.058 6.656H3.626c-.14-1.786-.065-3.273.228-4.46.44-1.78 1.195-2.848 2.017-3.623.547-.518 1.292-1.058 2.232-1.62zm3.936 6.081a.749.749 0 100 1.497.749.749 0 000-1.497zm0-2.53a.749.749 0 100 1.498.749.749 0 000-1.498zm4.537-9.134a4.62 4.62 0 11-9.126.058c1.993-.021 3.095-.036 4.114-.046l.405-.004c.675-.005 1.36-.009 2.296-.01h1.042c.382 0 .802 0 1.27.002zm-4.563-6.129c1.366.045 3.282.34 3.894.575.613.235.68.441.718 1.235.025.528.019 1.484-.02 2.867L7.42 5.901c-.006-.404-.01-.771-.01-1.103l-.001-.47c.002-.74.02-1.255.053-1.546.08-.699.208-.825.719-.937.51-.112 2.466-.6 3.832-.556z" fill="#000"/></g></svg>
